X: 1
T: No Sleep Tonight
C: Mark Price
R: reel
M: 4/4
K: A
|: "D" f3 f- fefe | fagf ecBA | "F#m" AceG- GAF2- | FFGA "A/C#" BAce |
| "D" f3 f- fefe | fagf ecBA | "E" B3 B- BcBA |1 EcBA "A" A2 ce :|2 EcBA "A" A4 ||
|: "F#m" FAef eAFA | efeA FAe2 | "A/C#" FAef ecAa- | ag2f- feCA |
| "D" FAef eAFA | efec BcBA |1 "Bm7" EFAB cBBA | "E" EFAB "C#7/F" cBBA :|2 "E" B3B- BcBA | EcBA "A" A2 z2 |]
